X: 3383
T: The Hay Makers.
%R: jig
B: Niel Gow & Sons "Complete Repository" v.3 p.38 #3
Z: 2021 John Chambers <jc:trillian.mit.edu>
M: 6/8
L: 1/8
K: G
% - - - - - - - - - -
% Voice 1 formatted for proofreading.
V: 1 staves=2
D | !f!~G2B (A/B/c).A | TB2G AFD | ~G2B (A/B/c).A | (B/c/d).B G2 :: c |\
TB2d g2d | (e/f/g).e dBG |
TB2d g2d | (e/f/g).e d2 :: !ff!B |\
~c2e dBG | (A/B/c).A TB2G | !c2e dBG | (A/B/cA) G2 :|
% - - - - - - - - - -
% Voice 2 preserves the book's staff layout.
V: 2 clef=bass middle=d
z |!f!\
[g3G3] [f3F3] | [g3G3] [d3D3] | [B3B,3] F3 | G3 [g2G2] :: !p!z |
[g3G3] [b3B3] | [c'3c3] [b3B3] | [g3G3] [b3B3] | [c'3c3] [b2B2] :: !ff!z |\
[a3A3] [g3G3] | [f3F3] [g3G3] | [c3C3] [B3B,3] | [A3A,3] [G2G,2] :|
% - - - - - - - - - -
%%text * In my Early days this was a Favorite Country Dance.  Niel Gow.

% %newpage

